X:186
M:6/4
L:1/8
K:C
cde2c2 d2B2G2 | ABc2E2 D4C2 | EFG2E2 G4G2 | cde2c2 d4d2 | cde2c2 d2B2G2 |
efg2e2 g2e2c2 | d2G2d2 d4d2 | efg2e2 g2e2c2 | fga2f2 a4a2 | efg2e2 d2B2G2 | ABc2E2 C6 :|

